svg/LeftHanded/e-resize.svg

<?xml version="1.0" encoding="UTF-8" standalone="no"?>
<!-- Created with Inkscape (http://www.inkscape.org/) -->
<svg
   xmlns:svg="http://www.w3.org/2000/svg"
   xmlns="http://www.w3.org/2000/svg"
   xmlns:xlink="http://www.w3.org/1999/xlink"
   version="1.0"
   width="500"
   height="500"
   viewBox="0 0 1000 1000"
   id="page"
   xml:space="preserve"><defs
     id="defs38"><linearGradient
       id="linearGradient2218"><stop
         id="stop2220"
         style="stop-color:#999999;stop-opacity:1"
         offset="0" /><stop
         id="stop2222"
         style="stop-color:#555555;stop-opacity:1"
         offset="1" /></linearGradient><linearGradient
       x1="732.75"
       y1="113.8158"
       x2="732.75"
       y2="515.21661"
       id="linearGradient4301"
       xlink:href="#linearGradient2218"
       gradientUnits="userSpaceOnUse"
       gradientTransform="translate(7.162454e-5,-7.162454e-5)" /></defs><path
     d="M 309.2996,315.19114 C 309.2996,327.91914 473.9406,456.02414 486.6546,443.30814 C 499.3836,430.57914 512.9466,391.55914 525.6756,378.83014 C 538.4036,366.10114 587.5386,368.51614 605.5386,368.51614 C 614.5386,368.51614 605.5386,521.51614 614.5386,530.51614 C 623.5386,539.51614 677.5386,539.51614 686.5386,530.51614 C 695.5386,521.51614 686.0306,325.13314 686.5386,314.51614 C 687.2456,299.66614 695.5386,107.51614 686.5386,98.516148 C 677.5386,89.516148 623.5386,89.516148 614.5386,98.516148 C 605.5386,107.51614 614.5386,260.51614 605.5386,260.51614 C 587.5386,260.51614 538.4026,264.27714 525.6756,251.54814 C 512.9466,238.82014 500.6466,201.06314 486.9876,187.40314 C 473.9046,174.32514 309.2996,300.97814 309.2996,315.19114 z"
     id="path4286"
     style="opacity:1;fill:url(#linearGradient4301);fill-opacity:1;stroke:#000000;stroke-width:20;stroke-linecap:round;stroke-linejoin:round;stroke-miterlimit:1" /></svg>

<?xml version="1.0" encoding="UTF-8" standalone="no"?>
<!-- Created with Inkscape (http://www.inkscape.org/) -->

<svg
   xmlns:dc="http://purl.org/dc/elements/1.1/"
   xmlns:cc="http://creativecommons.org/ns#"
   xmlns:rdf="http://www.w3.org/1999/02/22-rdf-syntax-ns#"
   xmlns:svg="http://www.w3.org/2000/svg"
   xmlns="http://www.w3.org/2000/svg"
   xmlns:xlink="http://www.w3.org/1999/xlink"
   version="1.0"
   width="500"
   height="500"
   viewBox="0 0 1000 1000"
   id="page"
   xml:space="preserve"><metadata
     id="metadata11"><rdf:RDF><cc:Work
         rdf:about=""><dc:format>image/svg+xml</dc:format><dc:type
           rdf:resource="http://purl.org/dc/dcmitype/StillImage" /><dc:title></dc:title></cc:Work></rdf:RDF></metadata><defs
     id="defs38"><linearGradient
       id="linearGradient2218"><stop
         id="stop2220"
         style="stop-color:#999999;stop-opacity:1"
         offset="0" /><stop
         id="stop2222"
         style="stop-color:#555555;stop-opacity:1"
         offset="1" /></linearGradient><linearGradient
       x1="732.75"
       y1="113.8158"
       x2="732.75"
       y2="515.21661"
       id="linearGradient4301"
       xlink:href="#linearGradient2218"
       gradientUnits="userSpaceOnUse"
       gradientTransform="translate(7.162454e-5,-7.162454e-5)" /><linearGradient
       x1="732.75"
       y1="113.8158"
       x2="732.75"
       y2="515.21661"
       id="linearGradient4301-4"
       xlink:href="#linearGradient2218-6"
       gradientUnits="userSpaceOnUse"
       gradientTransform="translate(7.162454e-5,-7.162454e-5)" /><linearGradient
       id="linearGradient2218-6"><stop
         id="stop2220-9"
         style="stop-color:#999999;stop-opacity:1"
         offset="0" /><stop
         id="stop2222-3"
         style="stop-color:#555555;stop-opacity:1"
         offset="1" /></linearGradient><filter
       x="-0.26016751"
       y="-0.22273421"
       width="1.520335"
       height="1.4454684"
       color-interpolation-filters="sRGB"
       id="filter3790"><feGaussianBlur
         id="feGaussianBlur3792"
         stdDeviation="41.34504" /></filter></defs><path
     d="m 1156.7572,483.72585 c 0,12.728 164.641,140.833 177.355,128.117 12.729,-12.729 26.292,-51.749 39.021,-64.478 12.728,-12.729 61.863,-10.314 79.863,-10.314 9,0 0,153 9,162 9,9 63,9 72,0 9,-9 -0.508,-205.383 0,-216 0.707,-14.85 9,-207.00001 0,-216 -9,-9 -63,-9 -72,0 -9,8.99999 0,161.99999 -9,161.99999 -18,0 -67.136,3.761 -79.863,-8.968 -12.729,-12.728 -25.029,-50.485 -38.688,-64.145 -13.083,-13.078 -177.688,113.57501 -177.688,127.78801 z"
     transform="matrix(1.2,0,0,1.2,-1116.9491,-145.14488)"
     id="path4286-4"
     style="opacity:0.15;fill:#111111;fill-opacity:1;stroke:none;filter:url(#filter3790)" /><path
     d="m 309.2996,315.19114 c 0,12.728 164.641,140.833 177.355,128.117 12.729,-12.729 26.292,-51.749 39.021,-64.478 12.728,-12.729 61.863,-10.314 79.863,-10.314 9,0 0,153 9,162 9,9 63,9 72,0 9,-9 -0.508,-205.383 0,-216 0.707,-14.85 9,-207 0,-215.999992 -9,-9 -63,-9 -72,0 -9,8.999992 0,161.999992 -9,161.999992 -18,0 -67.136,3.761 -79.863,-8.968 -12.729,-12.728 -25.029,-50.485 -38.688,-64.145 -13.083,-13.078 -177.688,113.575 -177.688,127.788 z"
     id="path4286"
     style="opacity:0.75;fill:url(#linearGradient4301);fill-opacity:1;stroke:#000000;stroke-width:20;stroke-linecap:round;stroke-linejoin:round;stroke-miterlimit:1" /></svg>
